!! 00000] TT[WS
!!!OTL: Sibao zhuzhu
!!!ARE: Asia, China, Shanxi Qinyuan
!! Ethnic Group: Han
!! WII, 47 (2)
!!!SCT: J0463
!!!YEM: Copyright 1995, estate of Helmut Schaffrath.
**kern
*ICvox
*Ivox
*M4/4
*k[b-e-]
*B-:
{8ff
8gg
8ff
8dd
4ff
8ff
8dd
=1
4.ccc
8fff
8ddd
8ccc
8bb-
8ff
=2
8fff
8fff
8fff
8ccc
8fff
8ddd
8ccc
8gg
=3
8bb-
4ff
8gg
2ff}
=4
{8ff
8gg
8bb-
8ccc
8fff
8ddd
8ccc
8gg
=5
8bb-
8bb-
8bb-
8ccc
8gg
8ff
8dd
8cc
=6
8bb-
8bb-
8bb-
8ff
8bb-
8gg
8ff
8dd
=7
8ff
8dd
8cc
8g
2b-}
==
!!!AGN: Xiaodiao. Qingge
!!!ONB: ESAC (Essen Associative Code) Database: CHINA
!!!AMT: simple quadruple
!!!AIN: vox
!!!EED: Helmut Schaffrath
!!!EEV: 1.0
*-
